svgs/sharp-light/road-circle-exclamation.svg

<svg xmlns="http://www.w3.org/2000/svg" viewBox="0 0 640 512"><!--! Font Awesome Pro 6.6.0 by @fontawesome - https://fontawesome.com License - https://fontawesome.com/license (Commercial License) Copyright 2024 Fonticons, Inc. --><path d="M184.1 64L74.4 448l264.8 0c5.9 11.4 12.9 22.2 21 32L65.3 480 32 480l9.1-32L160 32l144 0 32 0 144 0 46.5 162.6c-9.9-1.7-20.1-2.6-30.5-2.6c-1.2 0-2.4 0-3.6 0L455.9 64 336 64l0 48 0 16-32 0 0-16 0-48L184.1 64zM326.6 320L304 320l0-16 0-96 0-16 32 0 0 16 0 86.6c-3.8 8.2-6.9 16.7-9.4 25.4zM608 368a112 112 0 1 0 -224 0 112 112 0 1 0 224 0zm-256 0a144 144 0 1 1 288 0 144 144 0 1 1 -288 0zm160 80l-32 0 0-32 32 0 0 32zm0-160l0 16 0 80 0 16-32 0 0-16 0-80 0-16 32 0z"/></svg>

<svg xmlns="http://www.w3.org/2000/svg" viewBox="0 0 640 512"><!--! Font Awesome Pro 6.4.2 by @fontawesome - https://fontawesome.com License - https://fontawesome.com/license (Commercial License) Copyright 2023 Fonticons, Inc. --><path d="M184.1 64L74.4 448H339.2c5.9 11.4 12.9 22.2 21 32H65.3 32l9.1-32L160 32H304h32H480l46.5 162.6c-9.9-1.7-20.1-2.6-30.5-2.6c-1.2 0-2.4 0-3.6 0L455.9 64H336v48 16H304V112 64H184.1zM326.6 320H304V304 208 192h32v16 86.6c-3.8 8.2-6.9 16.7-9.4 25.4zM608 368a112 112 0 1 0 -224 0 112 112 0 1 0 224 0zm-256 0a144 144 0 1 1 288 0 144 144 0 1 1 -288 0zm160 80H480V416h32v32zm0-160v16 80 16H480V384 304 288h32z"/></svg>
